assets/img/logos/jquery.svg

<?xml version="1.0" ?><!DOCTYPE svg  PUBLIC '-//W3C//DTD SVG 1.1//EN'  'http://www.w3.org/Graphics/SVG/1.1/DTD/svg11.dtd'><svg id="Lager_1" style="enable-background:new 0 0 128 128;" version="1.1" viewBox="0 0 128 128" xml:space="preserve" xmlns="http://www.w3.org/2000/svg" xmlns:xlink="http://www.w3.org/1999/xlink"><g><g><g><circle cx="64" cy="64" r="50" style="fill:#0769AD;"/></g></g><g id="Layer_6"><g><g><path d="M36.8,49.9c-5.2,7.5-4.6,17.3-0.6,25.3c0.1,0.2,0.2,0.4,0.3,0.6c0.1,0.1,0.1,0.2,0.2,0.4      c0,0.1,0.1,0.1,0.1,0.2c0.1,0.1,0.1,0.2,0.2,0.4c0.1,0.2,0.3,0.4,0.4,0.7c0.1,0.1,0.1,0.2,0.2,0.4c0.1,0.2,0.3,0.5,0.4,0.7      c0.1,0.1,0.1,0.2,0.2,0.3c0.2,0.3,0.4,0.6,0.6,0.9l0,0l0.1,0.1c0.2,0.3,0.4,0.5,0.6,0.8c0.1,0.1,0.1,0.2,0.2,0.3      c0.2,0.2,0.4,0.4,0.5,0.7c0.1,0.1,0.1,0.2,0.2,0.2c0.2,0.3,0.5,0.6,0.8,0.9l0,0l0,0c0.3,0.3,0.5,0.5,0.8,0.8      c0.1,0.1,0.2,0.2,0.2,0.2c0.2,0.2,0.4,0.4,0.6,0.6c0.1,0.1,0.2,0.2,0.3,0.2c0.3,0.3,0.6,0.5,0.8,0.8l0,0l0.1,0.1      c0.3,0.2,0.5,0.4,0.8,0.6c0.1,0.1,0.2,0.2,0.3,0.3c0.2,0.2,0.4,0.3,0.6,0.5c0.1,0.1,0.2,0.2,0.3,0.3c0.2,0.2,0.5,0.3,0.7,0.5      c0.1,0.1,0.2,0.1,0.3,0.2c0,0,0,0,0.1,0.1c0.2,0.2,0.5,0.3,0.7,0.5c0.1,0.1,0.2,0.1,0.3,0.2c0.4,0.2,0.7,0.4,1.1,0.7      c0.1,0.1,0.2,0.1,0.3,0.2c0.3,0.2,0.5,0.3,0.8,0.5c0.1,0.1,0.3,0.2,0.4,0.2c0.2,0.1,0.4,0.2,0.6,0.3c0,0,0.1,0,0.1,0.1      c0.1,0,0.2,0.1,0.2,0.1c0.3,0.1,0.6,0.3,0.9,0.4c0.1,0,0.1,0.1,0.2,0.1c0.4,0.2,0.7,0.3,1.1,0.4c0.1,0,0.2,0.1,0.3,0.1      c0.3,0.1,0.7,0.3,1,0.4h0.1c0.4,0.1,0.8,0.3,1.1,0.4c0.1,0,0.2,0.1,0.3,0.1c0.4,0.1,0.8,0.3,1.2,0.3      c25.3,4.6,32.7-15.2,32.7-15.2C84.3,85.9,73.3,88,63,85.6c-0.4-0.1-0.8-0.2-1.2-0.3c-0.1,0-0.2-0.1-0.3-0.1      c-0.4-0.1-0.7-0.2-1.1-0.4c-0.1,0-0.1,0-0.2-0.1c-0.3-0.1-0.7-0.2-1-0.4c-0.1,0-0.2-0.1-0.3-0.1c-0.4-0.1-0.7-0.3-1.1-0.4      c-0.1,0-0.1-0.1-0.2-0.1c-0.3-0.1-0.6-0.3-0.9-0.4c-0.1,0-0.2-0.1-0.3-0.1c-0.2-0.1-0.5-0.2-0.7-0.4c-0.2-0.1-0.3-0.2-0.5-0.2      c-0.3-0.2-0.6-0.3-0.8-0.5c-0.1-0.1-0.2-0.1-0.3-0.2c-0.4-0.2-0.7-0.4-1.1-0.7c-0.1-0.1-0.2-0.1-0.3-0.2      c-0.3-0.2-0.5-0.3-0.8-0.5c-0.1-0.1-0.2-0.1-0.2-0.2c-0.2-0.2-0.5-0.3-0.7-0.5c-0.1-0.1-0.2-0.2-0.3-0.2      c-0.2-0.2-0.4-0.3-0.7-0.5c-0.1-0.1-0.2-0.2-0.3-0.2c-0.3-0.2-0.5-0.5-0.8-0.7c0,0-0.1,0-0.1-0.1c-0.3-0.3-0.6-0.5-0.9-0.8      c-0.1-0.1-0.2-0.2-0.2-0.2c-0.2-0.2-0.4-0.4-0.6-0.6c-0.1-0.1-0.2-0.2-0.2-0.2c-0.3-0.3-0.5-0.5-0.8-0.8l0,0      c-0.3-0.3-0.5-0.6-0.8-0.9c-0.1-0.1-0.1-0.2-0.2-0.2c-0.2-0.2-0.4-0.5-0.6-0.7c-0.1-0.1-0.1-0.2-0.2-0.3      c-0.2-0.3-0.4-0.6-0.6-0.9c-5.8-7.9-7.8-18.7-3.2-27.6" style="fill:#78CFF5;"/><path d="M53,43.5C49.2,49,49.4,56.2,52.4,62c0.5,1,1.1,1.9,1.7,2.8c0.6,0.8,1.2,1.8,1.9,2.4      c0.3,0.3,0.6,0.6,0.9,0.9c0.1,0.1,0.1,0.1,0.2,0.2c0.3,0.3,0.6,0.5,0.9,0.8l0,0l0,0c0.3,0.3,0.7,0.6,1,0.8      c0.1,0.1,0.2,0.1,0.2,0.2c0.3,0.3,0.7,0.5,1.1,0.8l0,0c0.2,0.1,0.3,0.2,0.5,0.3c0.1,0.1,0.2,0.1,0.2,0.2      c0.3,0.2,0.5,0.3,0.8,0.5c0,0,0.1,0,0.1,0.1c0.2,0.1,0.5,0.3,0.7,0.4c0.1,0,0.2,0.1,0.2,0.1c0.2,0.1,0.3,0.2,0.5,0.3      c0,0,0,0,0.1,0c0.3,0.2,0.7,0.3,1,0.5c0.1,0,0.1,0.1,0.2,0.1c0.3,0.1,0.6,0.2,0.8,0.3c0.1,0,0.2,0.1,0.4,0.1      c0.3,0.1,0.5,0.2,0.8,0.3c0.1,0,0.2,0.1,0.3,0.1c0.4,0.1,0.7,0.3,1.1,0.3c19.6,3.2,24.1-11.8,24.1-11.8      c-4.1,5.9-12,8.7-20.4,6.5c-0.4-0.1-0.7-0.2-1.1-0.3c-0.1,0-0.2-0.1-0.3-0.1c-0.3-0.1-0.5-0.2-0.8-0.3c-0.1,0-0.2-0.1-0.3-0.1      c-0.3-0.1-0.6-0.2-0.8-0.3c-0.1,0-0.2-0.1-0.2-0.1c-0.3-0.2-0.7-0.3-1-0.5c-0.2-0.1-0.3-0.2-0.5-0.3c-0.1-0.1-0.2-0.1-0.3-0.2      c-0.2-0.1-0.4-0.2-0.6-0.4c-0.1,0-0.1-0.1-0.2-0.1c-0.3-0.2-0.5-0.3-0.8-0.5c-0.1-0.1-0.2-0.1-0.2-0.2c-0.2-0.1-0.3-0.2-0.5-0.3      c-0.4-0.2-0.7-0.5-1.1-0.8c-0.1-0.1-0.2-0.1-0.2-0.2c-3.7-2.9-6.6-6.9-8-11.4c-1.5-4.7-1.1-9.9,1.4-14.2" style="fill:#78CFF5;"/><path d="M66.7,38.8c-2.2,3.3-2.5,7.4-0.9,11c1.6,3.9,5,6.9,8.9,8.3c0.2,0.1,0.3,0.1,0.5,0.2      c0.1,0,0.1,0,0.2,0.1c0.2,0.1,0.5,0.2,0.7,0.2c10.8,2.1,13.7-5.5,14.5-6.7c-2.6,3.7-6.9,4.6-12.2,3.3c-0.4-0.1-0.9-0.3-1.3-0.4      c-0.5-0.2-1-0.4-1.5-0.6c-0.9-0.5-1.8-1-2.7-1.6c-4.7-3.6-7.7-10.4-4.6-16" style="fill:#78CFF5;"/></g></g></g></g></svg>

<?xml version="1.0" encoding="UTF-8" standalone="no"?>
<svg
   xmlns:dc="http://purl.org/dc/elements/1.1/"
   xmlns:cc="http://creativecommons.org/ns#"
   xmlns:rdf="http://www.w3.org/1999/02/22-rdf-syntax-ns#"
   xmlns:svg="http://www.w3.org/2000/svg"
   xmlns="http://www.w3.org/2000/svg"
   xmlns:sodipodi="http://sodipodi.sourceforge.net/DTD/sodipodi-0.dtd"
   xmlns:inkscape="http://www.inkscape.org/namespaces/inkscape"
   id="Lager_1"
   style="enable-background:new 0 0 128 128;"
   version="1.1"
   viewBox="0 0 128 128"
   xml:space="preserve"
   sodipodi:docname="jquery.svg"
   inkscape:version="0.92.4 (5da689c313, 2019-01-14)"><metadata
     id="metadata26"><rdf:RDF><cc:Work
         rdf:about=""><dc:format>image/svg+xml</dc:format><dc:type
           rdf:resource="http://purl.org/dc/dcmitype/StillImage" /><dc:title></dc:title></cc:Work></rdf:RDF></metadata><defs
     id="defs24" /><sodipodi:namedview
     pagecolor="#ffffff"
     bordercolor="#666666"
     borderopacity="1"
     objecttolerance="10"
     gridtolerance="10"
     guidetolerance="10"
     inkscape:pageopacity="0"
     inkscape:pageshadow="2"
     inkscape:window-width="1366"
     inkscape:window-height="705"
     id="namedview22"
     showgrid="false"
     inkscape:zoom="1.84375"
     inkscape:cx="-0.81355932"
     inkscape:cy="64"
     inkscape:window-x="-8"
     inkscape:window-y="-8"
     inkscape:window-maximized="1"
     inkscape:current-layer="Lager_1" /><g
     id="g19"
     transform="matrix(1.28,0,0,1.28,-17.92,-17.92)"><g
       id="g6"><g
         id="g4"><circle
           cx="64"
           cy="64"
           r="50"
           style="fill:#0769ad"
           id="circle2" /></g></g><g
       id="Layer_6"><g
         id="g16"><g
           id="g14"><path
             d="m 36.8,49.9 c -5.2,7.5 -4.6,17.3 -0.6,25.3 0.1,0.2 0.2,0.4 0.3,0.6 0.1,0.1 0.1,0.2 0.2,0.4 0,0.1 0.1,0.1 0.1,0.2 0.1,0.1 0.1,0.2 0.2,0.4 0.1,0.2 0.3,0.4 0.4,0.7 0.1,0.1 0.1,0.2 0.2,0.4 0.1,0.2 0.3,0.5 0.4,0.7 0.1,0.1 0.1,0.2 0.2,0.3 0.2,0.3 0.4,0.6 0.6,0.9 v 0 l 0.1,0.1 c 0.2,0.3 0.4,0.5 0.6,0.8 0.1,0.1 0.1,0.2 0.2,0.3 0.2,0.2 0.4,0.4 0.5,0.7 0.1,0.1 0.1,0.2 0.2,0.2 0.2,0.3 0.5,0.6 0.8,0.9 v 0 0 c 0.3,0.3 0.5,0.5 0.8,0.8 0.1,0.1 0.2,0.2 0.2,0.2 0.2,0.2 0.4,0.4 0.6,0.6 0.1,0.1 0.2,0.2 0.3,0.2 0.3,0.3 0.6,0.5 0.8,0.8 v 0 l 0.1,0.1 c 0.3,0.2 0.5,0.4 0.8,0.6 0.1,0.1 0.2,0.2 0.3,0.3 0.2,0.2 0.4,0.3 0.6,0.5 0.1,0.1 0.2,0.2 0.3,0.3 0.2,0.2 0.5,0.3 0.7,0.5 0.1,0.1 0.2,0.1 0.3,0.2 0,0 0,0 0.1,0.1 0.2,0.2 0.5,0.3 0.7,0.5 0.1,0.1 0.2,0.1 0.3,0.2 0.4,0.2 0.7,0.4 1.1,0.7 0.1,0.1 0.2,0.1 0.3,0.2 0.3,0.2 0.5,0.3 0.8,0.5 0.1,0.1 0.3,0.2 0.4,0.2 0.2,0.1 0.4,0.2 0.6,0.3 0,0 0.1,0 0.1,0.1 0.1,0 0.2,0.1 0.2,0.1 0.3,0.1 0.6,0.3 0.9,0.4 0.1,0 0.1,0.1 0.2,0.1 0.4,0.2 0.7,0.3 1.1,0.4 0.1,0 0.2,0.1 0.3,0.1 0.3,0.1 0.7,0.3 1,0.4 h 0.1 c 0.4,0.1 0.8,0.3 1.1,0.4 0.1,0 0.2,0.1 0.3,0.1 C 57,92.8 57.4,93 57.8,93 83.1,97.6 90.5,77.8 90.5,77.8 84.3,85.9 73.3,88 63,85.6 c -0.4,-0.1 -0.8,-0.2 -1.2,-0.3 -0.1,0 -0.2,-0.1 -0.3,-0.1 -0.4,-0.1 -0.7,-0.2 -1.1,-0.4 -0.1,0 -0.1,0 -0.2,-0.1 -0.3,-0.1 -0.7,-0.2 -1,-0.4 -0.1,0 -0.2,-0.1 -0.3,-0.1 -0.4,-0.1 -0.7,-0.3 -1.1,-0.4 -0.1,0 -0.1,-0.1 -0.2,-0.1 -0.3,-0.1 -0.6,-0.3 -0.9,-0.4 -0.1,0 -0.2,-0.1 -0.3,-0.1 C 56.2,83.1 55.9,83 55.7,82.8 55.5,82.7 55.4,82.6 55.2,82.6 54.9,82.4 54.6,82.3 54.4,82.1 54.3,82 54.2,82 54.1,81.9 53.7,81.7 53.4,81.5 53,81.2 52.9,81.1 52.8,81.1 52.7,81 52.4,80.8 52.2,80.7 51.9,80.5 51.8,80.4 51.7,80.4 51.7,80.3 51.5,80.1 51.2,80 51,79.8 50.9,79.7 50.8,79.6 50.7,79.6 50.5,79.4 50.3,79.3 50,79.1 49.9,79 49.8,78.9 49.7,78.9 c -0.3,-0.2 -0.5,-0.5 -0.8,-0.7 0,0 -0.1,0 -0.1,-0.1 C 48.5,77.8 48.2,77.6 47.9,77.3 47.8,77.2 47.7,77.1 47.7,77.1 47.5,76.9 47.3,76.7 47.1,76.5 47,76.4 46.9,76.3 46.9,76.3 46.6,76 46.4,75.8 46.1,75.5 v 0 C 45.8,75.2 45.6,74.9 45.3,74.6 45.2,74.5 45.2,74.4 45.1,74.4 44.9,74.2 44.7,73.9 44.5,73.7 44.4,73.6 44.4,73.5 44.3,73.4 44.1,73.1 43.9,72.8 43.7,72.5 37.9,64.6 35.9,53.8 40.5,44.9"
             style="fill:#78cff5"
             id="path8"
             inkscape:connector-curvature="0" /><path
             d="M 53,43.5 C 49.2,49 49.4,56.2 52.4,62 c 0.5,1 1.1,1.9 1.7,2.8 0.6,0.8 1.2,1.8 1.9,2.4 0.3,0.3 0.6,0.6 0.9,0.9 0.1,0.1 0.1,0.1 0.2,0.2 0.3,0.3 0.6,0.5 0.9,0.8 v 0 0 c 0.3,0.3 0.7,0.6 1,0.8 0.1,0.1 0.2,0.1 0.2,0.2 0.3,0.3 0.7,0.5 1.1,0.8 v 0 c 0.2,0.1 0.3,0.2 0.5,0.3 0.1,0.1 0.2,0.1 0.2,0.2 0.3,0.2 0.5,0.3 0.8,0.5 0,0 0.1,0 0.1,0.1 0.2,0.1 0.5,0.3 0.7,0.4 0.1,0 0.2,0.1 0.2,0.1 0.2,0.1 0.3,0.2 0.5,0.3 0,0 0,0 0.1,0 0.3,0.2 0.7,0.3 1,0.5 0.1,0 0.1,0.1 0.2,0.1 0.3,0.1 0.6,0.2 0.8,0.3 0.1,0 0.2,0.1 0.4,0.1 0.3,0.1 0.5,0.2 0.8,0.3 0.1,0 0.2,0.1 0.3,0.1 0.4,0.1 0.7,0.3 1.1,0.3 19.6,3.2 24.1,-11.8 24.1,-11.8 -4.1,5.9 -12,8.7 -20.4,6.5 -0.4,-0.1 -0.7,-0.2 -1.1,-0.3 -0.1,0 -0.2,-0.1 -0.3,-0.1 -0.3,-0.1 -0.5,-0.2 -0.8,-0.3 -0.1,0 -0.2,-0.1 -0.3,-0.1 -0.3,-0.1 -0.6,-0.2 -0.8,-0.3 -0.1,0 -0.2,-0.1 -0.2,-0.1 -0.3,-0.2 -0.7,-0.3 -1,-0.5 C 67,67.4 66.9,67.3 66.7,67.2 66.6,67.1 66.5,67.1 66.4,67 66.2,66.9 66,66.8 65.8,66.6 65.7,66.6 65.7,66.5 65.6,66.5 65.3,66.3 65.1,66.2 64.8,66 64.7,65.9 64.6,65.9 64.6,65.8 64.4,65.7 64.3,65.6 64.1,65.5 63.7,65.3 63.4,65 63,64.7 62.9,64.6 62.8,64.6 62.8,64.5 59.1,61.6 56.2,57.6 54.8,53.1 53.3,48.4 53.7,43.2 56.2,38.9"
             style="fill:#78cff5"
             id="path10"
             inkscape:connector-curvature="0" /><path
             d="m 66.7,38.8 c -2.2,3.3 -2.5,7.4 -0.9,11 1.6,3.9 5,6.9 8.9,8.3 0.2,0.1 0.3,0.1 0.5,0.2 0.1,0 0.1,0 0.2,0.1 0.2,0.1 0.5,0.2 0.7,0.2 10.8,2.1 13.7,-5.5 14.5,-6.7 -2.6,3.7 -6.9,4.6 -12.2,3.3 -0.4,-0.1 -0.9,-0.3 -1.3,-0.4 -0.5,-0.2 -1,-0.4 -1.5,-0.6 -0.9,-0.5 -1.8,-1 -2.7,-1.6 -4.7,-3.6 -7.7,-10.4 -4.6,-16"
             style="fill:#78cff5"
             id="path12"
             inkscape:connector-curvature="0" /></g></g></g></g></svg>
